X: 250
T: Ben Gibi Sana...
C: Tab`î Mustafa Efendi
O: Turkey
F: http://compmusic.upf.edu/node/140
N: huseyni--yuruksemai--yuruksemai--ben_gibi--tabi_mustafa_efendi
N: makam= huseyni
N: form= yuruksemai
N: usul= yuruksemai = 6/8
M: 6/8
L: 1/16
K: C _2/4B ^3/4f  
Q: 1/4=90
%%MIDI tuningsystem comma53
d4a4 g4f4 e8  | e8 e4=f4 d8  | d2z2c4 d4e4 c8  | \
w:  Ben  gi bi  sa na   |  â şık_ ı  üf   |  *  üf  | 
c4B4 c4d4 B6A2  | 
w:  *  tâ de  bu lun  | 
A12B2A2 B8  | c4B4 c4d4 e8  | a4g4 f4e4 d8  | \
w:  maz   |  maz   |  maz   *  *  *  Üf  | 
d8 a4g2f2 f3ed2e2  | 
w:  tâ de  bu *  lun  | 
d4e16-e4  | d4a4 g4f4 e8  | e8 e4=f4 d8  | \
w:  maz    |  Sen  gi bi  gü zel   |  da hî  bu  dün   | 
d2z2c4 d4e4 c8  | c4B4 c4d4 B6A2  | 
w:  *  dün  |  *  ya da  bu lun  | 
A12B2A2 B8  | c4B4 c4d4 e8  | a4g4 f4e4 d4e4  | \
w:  maz   |  maz   |  maz   *  *  *  Dün  | 
c4B2A2 B4d2c2 B3AG2A2  | 
w:  ya *  *  da  bu *  lun  | 
A24  | G4G4 G4G4 c8  | (3c2B2c2d8c2B2 B8  | \
w:  maz    |  Â vâ re  di lim   |  ben   | 
B4B4 B4B2A2 A6G2  | (3A2G2A2B8A2G2 G8  | 
w:  bî çâ re  di *  lim   |  ben    | 
G4G4 G4G4 c8  | (3c2B2c2d8c2B2 B8  | \
w:  Â vâ re  di lim   |  ben   | 
B4B4 B4B2A2 A6G2  | (3A2G2A2B8A2G2 G8  | 
w:  bî çâ re  di *  lim   |  ben    | 
d4c4 B4d4 c8  | d4c4 d4e4 e8  | a4g4 =f4e4 d2e2d4  | \
w:  Ten  nen  ni  ten  nen   |  ten  nen  ni  ten  nen    |  Te  ne  ni  te  nen   | 
c2d2c4 B4A2B2 A4G4  | 
w:  tâ  *  *  *  dir    | 
d4c4 B4d4 c8  | d4c4 d4e4 e8  | a4g4 =f4e4 d2e2d4  | \
w:  Ten  nen  ni  ten  nen   |  ten  nen  ni  ten  nen    |  Te  ne  ni  te  nen   | 
c2d2c4 B4A2B2 A4G4  | 
w:  tâ  *  *  *  dir    | 
G4G8c8B2c2  | d8 c2B2A12  | G4G6A2A12  | \
w:  Te  ne   |  dir  *  *  ney   |  dir  dir  *  ten   | 
c16-c4z4  | d4c4 d4e6c2d2e2  | 
w:  ten   |  ten   | 
e16 z4z4  | z20  | a2g2=f2efeddccBA2B2c2  | \
w:  ten    |  |  Ten  *  *  *  *  *  *  ye  *  le  *  lâ   | 
A4G2dcBcd2cBA4B2  | 
w:  li  nâ  lâ  *  *  *  *  ni *  hân    | 
G4G2c2Bcd2cBA6  | z4a2g2=f2e2d2c4B2  | \
w:  *  Hay râ *  *  *  nı *  nam   |  ben  â *  şık_ *  ı   | 
A4G2c2Bcd2cBA6  | 
w:  *  gir yâ *  *  *  nı *  nam    | 
z24  | d4e4 e4e4 e6d2  | g4=f4 e2f2e2d2 d8  | \
w:  |  Mes tâ ne  mi sin   |  sen   | 
e4d4 c4c4 d4B4  | c4B4 c4d4 e8  | 
w:  dür dâ ne  mi sin   |  sen    | 
d4e4 e4e4 e6d2  | g4=f4 e2f2e2d2 d8  | \
w:  Mes tâ ne  mi sin   |  sen   | 
e4d4 c4c4 d4B4  | c4B4 c4d4 e8  | 
w:  dür dâ ne  mi sin   |  sen    | 
d4a4 g4f4 e8  | e8 e4=f4 d8  | d2z2c4 d4e4 c8  | \
w:  Sen  gi bi  gü zel   |  dâ hî  bu  dün   |  *  dün  | 
c4B4 c4d4 B6A2  | 
w:  *  ya da  bu lun  | 
A12B2A2 B8  | c4B4 c4d4 e8  | a4g4 =f4e4 d4e4  | \
w:  maz   |  maz   |  maz   *  *  *  Dün  | 
c4B2A2 B4d2c2 B3AG2A2  | 
w:  ya *  *  da  bu *  lun  | 
G16-G4z4  | G4d4 d4d2^c2 d8  | d8 e4^c4 d8  | \
w:  maz    |  Mut rıp  yi ne  *  gül   |  gi bi  a çıl  | 
e4d4 ^c4=B12  | d4^c4 =B4A12  | 
w:  maz *  *  sın   |  a cep  *  sen    | 
=B4A4 B4^c4 B4c4  | d4^c4 d4e4 f8  | \
w:  Sen   |   | 
d4e4 f4g4 a6g2  | f8 e4d4 g4f2e2  | 
w:  sen  *  *  a çıl  |  maz sın  a cep   | 
e16 z8  | d4a4 g4f4 e8  | e8 e4=f4 d8  | \
w:  sen    |  Bu  bezm_ i  sa fâ   |  her  za man  â   | 
d2z2c4 d4e4 c8  | c4B4 c4d4 B6A2  | 
w:  *  â  |  mâ *  de  bu lun  | 
A12B2A2 B8  | c4B4 c4d4 e8  | a4g4 f4e4 d4e4  | \
w:  maz   |  maz   |  maz   *  *  *  Â  | 
c4B2A2 B4d2c2 B3AG2A2  | 
w:  mâ *  *  de  bu *  lun  | 
A24  | z24  | G4G4 G4G4 c8  | (3c2B2c2d8c2B2 B8  | \
w:  maz    |  |  Â vâ re  di lim   |  ben   | 
B4B4 B4B2A2 A6G2  | 
w:  bî çâ re  di *  lim   | 
(3A2G2A2B8A2G2 G8  | G4G4 G4G4 c8  | \
w:  ben    |  Â vâ re  di lim   | 
(3c2B2c2d8c2B2 B8  | B4B4 B4B2A2 A6G2  | 
w:  ben   |  bî çâ re  di *  lim   | 
(3A2G2A2B8A2G2 G8  | d4c4 B4d4 c8  | \
w:  ben    |  Ten  nen  ni  ten  nen   | 
d4c4 d4e4 e8  | a4g4 =f4e4 d2e2d4  | 
w:  ten  nen  ni  ten  nen    |  Te  ne  ni  te  nen   | 
c2d2c4 B4A2B2 A4G4  | d4c4 B4d4 c8  | \
w:  tâ  *  *  *  dir    |  Ten  nen  ni  ten  nen   | 
d4c4 d4e4 e8  | a4g4 =f4e4 d2e2d4  | 
w:  ten  nen  ni  ten  nen    |  Te  ne  ni  te  nen   | 
c2d2c4 B4A2B2 A4G4  | G4G8c8B2c2  | d8 c2B2A12  | \
w:  tâ  *  *  *  dir    |  Te  ne   |  dir  *  *  ney   | 
G4G6A2A12  | 
w:  dir  dir  *  ten   | 
c16-c4z4  | d4c4 d4e6c2d2e2  | e16 z4z4  | z20  | \
w:  ten   |  ten   |  ten    |  | 
a2g2=f2efeddccBA2B2c2  | 
w:  Ten  *  *  *  *  *  *  ye  *  le  *  lâ   | 
A4G2dcBcd2cBA4B2  | G4G2c2Bcd2cBA6  | \
w:  li  nâ  lâ  *  *  *  *  ni *  hân    |  *  Hay râ *  *  *  nı *  nam   | 
z4a2g2=f2e2d2c4B2  | 
w:  ben  â *  şık_ *  ı   | 
A4G2c2Bcd2cBA6  | z24  | d4e4 e4e4 e6d2  | \
w:  *  gir yâ *  *  *  nı *  nam    |  |  Mes tâ ne  mi sin   | 
g4=f4 e2f2e2d2 d8  | 
w:  sen   | 
e4d4 c4c4 d4B4  | c4B4 c4d4 e8  | d4e4 e4e4 e6d2  | \
w:  dür dâ ne  mi sin   |  sen    |  Mes tâ ne  mi sin   | 
g4=f4 e2f2e2d2 d8  | 
w:  sen   | 
e4d4 c4c4 d4B4  | c4B4 c4d4 e8  | d4a4 g4f4 e8  | \
w:  dür dâ ne  mi sin   |  sen    |  Sen  gi bi  gü zel   | 
e8 e4=f4 d8  | d2z2c4 d4e4 c8  | 
w:  dâ hî  bu  dün   |  *  dün  | 
c4B4 c4d4 B6A2  | A12B2A2 B8  | c4B4 c4d4 e8  | \
w:  *  ya da  bu lun  |  maz   |  maz   | 
a4g4 =f4e4 d4e4  | 
w:  maz   *  *  *  Dün  | 
c4B2A2 B4d2c2 B3AG2A2  | G16-G4z4  | |


